Newaita/actions/24/dialog-fill-and-stroke.svg

<svg height="24" viewBox="0 0 24 24" width="24" xmlns="http://www.w3.org/2000/svg"><path d="m20.453125 3.132812c-1.359375-1.359374-3.550781-1.359374-4.914063 0l-8.332031 8.335938-.351562.351562c-4.492188 2.429688-1.292969 4.496094-4.21875 8.398438-.261719.257812-.183594.695312.152343.84375 4.023438 1.726562 7.527344.691406 8.976563-4.332031l8.6875-8.6875c1.359375-1.359375 1.359375-3.550781 0-4.910157zm-1.402344 1.402344c.582031.585938.582031 1.523438 0 2.105469l-.644531.644531-2.105469-2.105468.644531-.644532c.582032-.582031 1.519532-.582031 2.105469 0zm-3.449219 1.34375 2.105469 2.105469-.761719.761719-2.105468-2.105469zm-1.464843 1.464844 2.105469 2.105469-5.527344 5.527343-2.105469-2.105468zm-5.792969 8.597656c1.054688 1.054688-.4375 3.945313-2.890625 3.59375 1.402344-2.101562.785156-5.695312 2.890625-3.59375zm0 0" fill="#424242"/></svg>

<?xml version="1.0" encoding="UTF-8"?>
<svg xmlns="http://www.w3.org/2000/svg" xmlns:xlink="http://www.w3.org/1999/xlink" width="24px" height="24px" viewBox="0 0 24 24" version="1.1">
<g id="surface1">
<path style=" stroke:none;fill-rule:nonzero;fill:rgb(25.882354%,25.882354%,25.882354%);fill-opacity:1;" d="M 20.453125 3.132812 C 19.09375 1.773438 16.902344 1.773438 15.539062 3.132812 L 7.207031 11.46875 L 6.855469 11.820312 C 2.363281 14.25 5.5625 16.316406 2.636719 20.21875 C 2.375 20.476562 2.453125 20.914062 2.789062 21.0625 C 6.8125 22.789062 10.316406 21.753906 11.765625 16.730469 L 20.453125 8.042969 C 21.8125 6.683594 21.8125 4.492188 20.453125 3.132812 Z M 19.050781 4.535156 C 19.632812 5.121094 19.632812 6.058594 19.050781 6.640625 L 18.40625 7.285156 L 16.300781 5.179688 L 16.945312 4.535156 C 17.527344 3.953125 18.464844 3.953125 19.050781 4.535156 Z M 15.601562 5.878906 L 17.707031 7.984375 L 16.945312 8.746094 L 14.839844 6.640625 Z M 14.136719 7.34375 L 16.242188 9.449219 L 10.714844 14.976562 L 8.609375 12.871094 Z M 8.34375 15.941406 C 9.398438 16.996094 7.90625 19.886719 5.453125 19.535156 C 6.855469 17.433594 6.238281 13.839844 8.34375 15.941406 Z M 8.34375 15.941406 "/>
</g>
</svg>
